Newaita-dark/apps/24/preferences-system-brightness-lock.svg

<svg height="24" viewBox="0 0 24 24" width="24" xmlns="http://www.w3.org/2000/svg" xmlns:xlink="http://www.w3.org/1999/xlink"><linearGradient id="a"><stop offset="0" stop-opacity=".313726"/><stop offset=".222222" stop-opacity=".27451"/><stop offset="1" stop-opacity="0"/></linearGradient><radialGradient id="b" cx="450.908936" cy="189.579361" gradientTransform="matrix(.00000013 -.0585994 -.105479 -.00000008 31.903941 47.696497)" gradientUnits="userSpaceOnUse" r="21.166656" xlink:href="#a"/><radialGradient id="c" cx="450.908936" cy="189.579361" gradientTransform="matrix(-.00000013 .0585994 .105479 .00000008 -8.089166 -5.645612)" gradientUnits="userSpaceOnUse" r="21.166656" xlink:href="#a"/><radialGradient id="d" cx="450.908936" cy="189.579361" gradientTransform="matrix(-.00000013 -.0585994 .105479 -.00000008 -8.089166 47.696497)" gradientUnits="userSpaceOnUse" r="21.166656" xlink:href="#a"/><radialGradient id="e" cx="450.908936" cy="189.579361" gradientTransform="matrix(.00000013 .0585994 -.105479 .00000008 31.903939 -5.645612)" gradientUnits="userSpaceOnUse" r="21.166656" xlink:href="#a"/><linearGradient id="f" gradientTransform="matrix(.00143143 0 0 .0468795 11.541909 10.079088)" gradientUnits="userSpaceOnUse" x1="255.323059" x2="255.323044" y1="233.5" y2="254.666656"><stop offset="0" stop-opacity=".27451"/><stop offset="1" stop-opacity="0"/></linearGradient><linearGradient id="g"><stop offset="0" stop-color="#78909c"/><stop offset="1" stop-color="#90a4ae"/></linearGradient><linearGradient id="h" gradientUnits="userSpaceOnUse" x1="11.90736" x2="11.90736" xlink:href="#g" y1="21.02539814717" y2="2.17207777507"/><linearGradient id="i" gradientUnits="userSpaceOnUse" x1="13.89195900005" x2="13.89195900005" xlink:href="#g" y1="18.54474312498" y2="4.652784875"/><linearGradient id="j" gradientUnits="userSpaceOnUse" x1="400" x2="960" y1="935.117188" y2="935.117188"><stop offset="0" stop-color="#eee"/><stop offset="1" stop-color="#e0e0e0"/></linearGradient><path d="m12.15625 21.027344h1.984375v-.996094h-1.984375zm0 0" fill="url(#b)"/><path d="m11.660156 21.027344h-1.984375v.992187h1.984375zm0 0" fill="url(#c)"/><path d="m11.660156 21.027344h-1.984375v-.996094h1.984375zm0 0" fill="url(#d)"/><path d="m12.15625 21.027344h1.984375v.992187h-1.984375zm0 0" fill="url(#e)"/><path d="m11.660156 20.777344h.496094v1.242187h-.496094zm0 0" fill="url(#f)"/><path d="m11.90625 2.1875c-.253906 0-.507812.09375-.699219.289062l-2.175781 2.175782h-3.078125c-.550781 0-.992187.441406-.992187.992187v3.078125l-2.175782 2.175782c-.386718.386718-.386718 1.011718 0 1.402343l2.175782 2.175781v3.074219c0 .550781.441406.992188.992187.992188h3.078125l2.175781 2.175781c.386719.390625 1.011719.390625 1.402344 0l2.175781-2.175781h3.074219c.550781 0 .992187-.441407.992187-.992188v-3.074219l2.175782-2.175781c.390625-.390625.390625-1.015625 0-1.402343l-2.175782-2.175782v-3.078125c0-.550781-.441406-.992187-.992187-.992187h-3.074219l-2.175781-2.175782c-.195313-.195312-.449219-.289062-.703125-.289062zm0 0" fill="url(#h)"/><path d="m11.90625 4.652344c3.835938 0 6.945312 3.109375 6.945312 6.945312 0 3.835938-3.109374 6.945313-6.945312 6.945313s-6.945312-3.109375-6.945312-6.945313c0-3.835937 3.109374-6.945312 6.945312-6.945312zm0 0" fill="url(#i)"/><path d="m959.908384 375.082311c-310.206614 0-559.946557 249.739944-559.946557 559.946558 0 310.206613 249.739943 559.946557 559.946557 559.946557zm0 0" fill="url(#j)" stroke="#212121" stroke-linecap="round" stroke-linejoin="round" stroke-width="11.338583" transform="scale(.0124035)"/><path d="m11.90625 2.1875c-.253906 0-.507812.09375-.699219.289062l-2.175781 2.175782h-3.078125c-.550781 0-.992187.441406-.992187.992187v.234375c0-.550781.441406-.992187.992187-.992187h3.078125l2.175781-2.175781c.191407-.195313.445313-.289063.699219-.289063s.507812.09375.703125.289063l2.175781 2.175781h3.074219c.550781 0 .992187.441406.992187.992187v-.234375c0-.550781-.441406-.992187-.992187-.992187h-3.074219l-2.175781-2.175782c-.195313-.195312-.449219-.289062-.703125-.289062zm-6.945312 6.535156-2.175782 2.175782c-.222656.222656-.316406.527343-.285156.816406.027344-.210938.121094-.417969.285156-.582032l2.175782-2.175781zm13.890624 0v.234375l2.175782 2.175781c.164062.164063.261718.371094.285156.582032.035156-.289063-.058594-.59375-.285156-.816406zm0 0" fill="#fff" fill-opacity=".392157"/><path d="m11.90625 21.011719c-.253906 0-.507812-.097657-.699219-.292969l-2.175781-2.175781h-3.078125c-.550781 0-.992187-.441407-.992187-.992188v-.234375c0 .550782.441406.992188.992187.992188h3.078125l2.175781 2.175781c.191407.195313.445313.292969.699219.292969s.507812-.097656.703125-.292969l2.175781-2.175781h3.074219c.550781 0 .992187-.441406.992187-.992188v.234375c0 .550781-.441406.992188-.992187.992188h-3.074219l-2.175781 2.175781c-.195313.195312-.449219.292969-.703125.292969zm-6.945312-6.535157-2.175782-2.175781c-.222656-.226562-.316406-.527343-.285156-.820312.027344.214843.121094.421875.285156.585937l2.175782 2.175782zm13.890624 0v-.234374l2.175782-2.175782c.164062-.164062.261718-.371094.285156-.585937.035156.292969-.058594.59375-.285156.820312zm0 0" fill-opacity=".235294"/><path d="m11.90625 2.117188c-.269531 0-.542969.101562-.75.308593l-2.15625 2.15625h-3.046875c-.585937 0-1.0625.476563-1.0625 1.0625v3.046875l-2.15625 2.15625c-.414063.414063-.414063 1.085938 0 1.503906l2.15625 2.152344v3.046875c0 .589844.476563 1.0625 1.0625 1.0625h3.046875l2.15625 2.15625c.414062.414063 1.085938.414063 1.503906 0l2.152344-2.15625h3.046875c.589844 0 1.0625-.472656 1.0625-1.0625v-3.046875l2.15625-2.152344c.414063-.417968.414063-1.089843 0-1.503906l-2.15625-2.15625v-3.046875c0-.585937-.472656-1.0625-1.0625-1.0625h-3.046875l-2.152344-2.15625c-.210937-.207031-.480468-.308593-.753906-.308593zm0 .140624c.238281 0 .472656.089844.652344.269532l2.175781 2.175781c.011719.011719.03125.019531.050781.019531h3.074219c.515625 0 .921875.410156.921875.921875v3.078125c0 .019532.007812.035156.023438.046875l2.175781 2.175781c.359375.363282.359375.941407 0 1.304688l-2.175781 2.175781c-.015626.011719-.023438.03125-.023438.050781v3.074219c0 .515625-.40625.921875-.921875.921875h-3.074219c-.019531 0-.039062.007813-.050781.023438l-2.175781 2.175781c-.359375.359375-.941406.359375-1.304688 0l-2.175781-2.175781c-.011719-.015625-.027344-.023438-.046875-.023438h-3.078125c-.511719 0-.921875-.40625-.921875-.921875v-3.074219c0-.019531-.007812-.039062-.019531-.050781l-2.175781-2.175781c-.363282-.363281-.363282-.941406 0-1.304688l2.175781-2.175781c.011719-.011719.019531-.027343.019531-.046875v-3.078125c0-.511719.410156-.921875.921875-.921875h3.078125c.019531 0 .035156-.007812.046875-.019531l2.175781-2.175781c.183594-.179688.417969-.269532.652344-.269532zm0 0" fill="#212121" fill-opacity=".963235"/><path d="m11.90625 4.652344c-3.847656 0-6.945312 3.097656-6.945312 6.945312v.125c.066406-3.789062 3.140624-6.820312 6.945312-6.820312 3.808594 0 6.878906 3.03125 6.945312 6.820312 0-.042968 0-.082031 0-.125 0-3.847656-3.097656-6.945312-6.945312-6.945312zm0 0" fill="#fff" fill-opacity=".392157"/><path d="m11.90625 18.792969c-3.847656 0-6.945312-3.097657-6.945312-6.945313 0-.042968 0-.082031 0-.125.066406 3.789063 3.140624 6.820313 6.945312 6.820313 3.808594 0 6.878906-3.03125 6.945312-6.820313v.125c0 3.847656-3.097656 6.945313-6.945312 6.945313zm0 0" fill-opacity=".235294"/><path d="m253.975747-115.759477c81.825519 0 148.152518 66.326999 148.152518 148.152519 0 81.825519-66.326999 148.152519-148.152518 148.152519-81.82552 0-148.152519-66.327-148.152519-148.152519 0-81.82552 66.326999-148.152519 148.152519-148.152519zm0 0" fill="none" stroke="#212121" stroke-linecap="round" stroke-linejoin="round" stroke-width="2.546624" transform="matrix(.0468795 0 0 .0468795 0 10.079087)"/></svg>

<?xml version="1.0" encoding="UTF-8"?>
<svg xmlns="http://www.w3.org/2000/svg" xmlns:xlink="http://www.w3.org/1999/xlink" width="24px" height="24px" viewBox="0 0 24 24" version="1.1">
<defs>
<radialGradient id="radial0" gradientUnits="userSpaceOnUse" cx="450.908936" cy="189.579361" fx="450.908936" fy="189.579361" r="21.166656" gradientTransform="matrix(0.000000130628,-0.0585994,-0.105479,-0.0000000761539,31.903941,47.696497)">
<stop offset="0" style="stop-color:rgb(0%,0%,0%);stop-opacity:0.313726;"/>
<stop offset="0.222222" style="stop-color:rgb(0%,0%,0%);stop-opacity:0.27451;"/>
<stop offset="1" style="stop-color:rgb(0%,0%,0%);stop-opacity:0;"/>
</radialGradient>
<radialGradient id="radial1" gradientUnits="userSpaceOnUse" cx="450.908936" cy="189.579361" fx="450.908936" fy="189.579361" r="21.166656" gradientTransform="matrix(-0.000000130628,0.0585994,0.105479,0.0000000761539,-8.089166,-5.645612)">
<stop offset="0" style="stop-color:rgb(0%,0%,0%);stop-opacity:0.313726;"/>
<stop offset="0.222222" style="stop-color:rgb(0%,0%,0%);stop-opacity:0.27451;"/>
<stop offset="1" style="stop-color:rgb(0%,0%,0%);stop-opacity:0;"/>
</radialGradient>
<radialGradient id="radial2" gradientUnits="userSpaceOnUse" cx="450.908936" cy="189.579361" fx="450.908936" fy="189.579361" r="21.166656" gradientTransform="matrix(-0.000000130628,-0.0585994,0.105479,-0.0000000761539,-8.089166,47.696497)">
<stop offset="0" style="stop-color:rgb(0%,0%,0%);stop-opacity:0.313726;"/>
<stop offset="0.222222" style="stop-color:rgb(0%,0%,0%);stop-opacity:0.27451;"/>
<stop offset="1" style="stop-color:rgb(0%,0%,0%);stop-opacity:0;"/>
</radialGradient>
<radialGradient id="radial3" gradientUnits="userSpaceOnUse" cx="450.908936" cy="189.579361" fx="450.908936" fy="189.579361" r="21.166656" gradientTransform="matrix(0.000000130628,0.0585994,-0.105479,0.0000000761539,31.903939,-5.645612)">
<stop offset="0" style="stop-color:rgb(0%,0%,0%);stop-opacity:0.313726;"/>
<stop offset="0.222222" style="stop-color:rgb(0%,0%,0%);stop-opacity:0.27451;"/>
<stop offset="1" style="stop-color:rgb(0%,0%,0%);stop-opacity:0;"/>
</radialGradient>
<linearGradient id="linear0" gradientUnits="userSpaceOnUse" x1="255.323059" y1="233.5" x2="255.323044" y2="254.666656" gradientTransform="matrix(0.00143143,0,0,0.0468795,11.541909,10.079088)">
<stop offset="0" style="stop-color:rgb(0%,0%,0%);stop-opacity:0.27451;"/>
<stop offset="1" style="stop-color:rgb(0%,0%,0%);stop-opacity:0;"/>
</linearGradient>
<linearGradient id="linear1" gradientUnits="userSpaceOnUse" x1="960" y1="1695.118164" x2="960" y2="175.118134" gradientTransform="matrix(0.0124035,0,0,0.0124035,0,0.00000000000000141)">
<stop offset="0" style="stop-color:rgb(47.058824%,56.470591%,61.176473%);stop-opacity:1;"/>
<stop offset="1" style="stop-color:rgb(56.470591%,64.313728%,68.235296%);stop-opacity:1;"/>
</linearGradient>
<linearGradient id="linear2" gradientUnits="userSpaceOnUse" x1="296.333344" y1="180.583328" x2="296.333344" y2="-115.75" gradientTransform="matrix(0.0468795,0,0,0.0468795,0,10.079087)">
<stop offset="0" style="stop-color:rgb(47.058824%,56.470591%,61.176473%);stop-opacity:1;"/>
<stop offset="1" style="stop-color:rgb(56.470591%,64.313728%,68.235296%);stop-opacity:1;"/>
</linearGradient>
<linearGradient id="linear3" gradientUnits="userSpaceOnUse" x1="400" y1="935.117188" x2="960" y2="935.117188" gradientTransform="matrix(1,0,0,1,0,-0)">
<stop offset="0" style="stop-color:rgb(93.333334%,93.333334%,93.333334%);stop-opacity:1;"/>
<stop offset="1" style="stop-color:rgb(87.843138%,87.843138%,87.843138%);stop-opacity:1;"/>
</linearGradient>
</defs>
<g id="surface1">
<path style=" stroke:none;fill-rule:nonzero;fill:url(#radial0);" d="M 12.15625 21.027344 L 14.140625 21.027344 L 14.140625 20.03125 L 12.15625 20.03125 Z M 12.15625 21.027344 "/>
<path style=" stroke:none;fill-rule:nonzero;fill:url(#radial1);" d="M 11.660156 21.027344 L 9.675781 21.027344 L 9.675781 22.019531 L 11.660156 22.019531 Z M 11.660156 21.027344 "/>
<path style=" stroke:none;fill-rule:nonzero;fill:url(#radial2);" d="M 11.660156 21.027344 L 9.675781 21.027344 L 9.675781 20.03125 L 11.660156 20.03125 Z M 11.660156 21.027344 "/>
<path style=" stroke:none;fill-rule:nonzero;fill:url(#radial3);" d="M 12.15625 21.027344 L 14.140625 21.027344 L 14.140625 22.019531 L 12.15625 22.019531 Z M 12.15625 21.027344 "/>
<path style=" stroke:none;fill-rule:nonzero;fill:url(#linear0);" d="M 11.660156 20.777344 L 12.15625 20.777344 L 12.15625 22.019531 L 11.660156 22.019531 Z M 11.660156 20.777344 "/>
<path style=" stroke:none;fill-rule:nonzero;fill:url(#linear1);" d="M 11.90625 2.1875 C 11.652344 2.1875 11.398438 2.28125 11.207031 2.476562 L 9.03125 4.652344 L 5.953125 4.652344 C 5.402344 4.652344 4.960938 5.09375 4.960938 5.644531 L 4.960938 8.722656 L 2.785156 10.898438 C 2.398438 11.285156 2.398438 11.910156 2.785156 12.300781 L 4.960938 14.476562 L 4.960938 17.550781 C 4.960938 18.101562 5.402344 18.542969 5.953125 18.542969 L 9.03125 18.542969 L 11.207031 20.71875 C 11.59375 21.109375 12.21875 21.109375 12.609375 20.71875 L 14.785156 18.542969 L 17.859375 18.542969 C 18.410156 18.542969 18.851562 18.101562 18.851562 17.550781 L 18.851562 14.476562 L 21.027344 12.300781 C 21.417969 11.910156 21.417969 11.285156 21.027344 10.898438 L 18.851562 8.722656 L 18.851562 5.644531 C 18.851562 5.09375 18.410156 4.652344 17.859375 4.652344 L 14.785156 4.652344 L 12.609375 2.476562 C 12.414062 2.28125 12.160156 2.1875 11.90625 2.1875 Z M 11.90625 2.1875 "/>
<path style=" stroke:none;fill-rule:nonzero;fill:url(#linear2);" d="M 11.90625 4.652344 C 15.742188 4.652344 18.851562 7.761719 18.851562 11.597656 C 18.851562 15.433594 15.742188 18.542969 11.90625 18.542969 C 8.070312 18.542969 4.960938 15.433594 4.960938 11.597656 C 4.960938 7.761719 8.070312 4.652344 11.90625 4.652344 Z M 11.90625 4.652344 "/>
<path style="fill-rule:nonzero;fill:url(#linear3);stroke-width:11.338583;stroke-linecap:round;stroke-linejoin:round;stroke:rgb(12.941177%,12.941177%,12.941177%);stroke-opacity:1;stroke-miterlimit:4;" d="M 959.908384 375.082311 C 649.70177 375.082311 399.961827 624.822255 399.961827 935.028869 C 399.961827 1245.235482 649.70177 1494.975426 959.908384 1494.975426 Z M 959.908384 375.082311 " transform="matrix(0.0124035,0,0,0.0124035,0,0)"/>
<path style=" stroke:none;fill-rule:nonzero;fill:rgb(100%,100%,100%);fill-opacity:0.392157;" d="M 11.90625 2.1875 C 11.652344 2.1875 11.398438 2.28125 11.207031 2.476562 L 9.03125 4.652344 L 5.953125 4.652344 C 5.402344 4.652344 4.960938 5.09375 4.960938 5.644531 L 4.960938 5.878906 C 4.960938 5.328125 5.402344 4.886719 5.953125 4.886719 L 9.03125 4.886719 L 11.207031 2.710938 C 11.398438 2.515625 11.652344 2.421875 11.90625 2.421875 C 12.160156 2.421875 12.414062 2.515625 12.609375 2.710938 L 14.785156 4.886719 L 17.859375 4.886719 C 18.410156 4.886719 18.851562 5.328125 18.851562 5.878906 L 18.851562 5.644531 C 18.851562 5.09375 18.410156 4.652344 17.859375 4.652344 L 14.785156 4.652344 L 12.609375 2.476562 C 12.414062 2.28125 12.160156 2.1875 11.90625 2.1875 Z M 4.960938 8.722656 L 2.785156 10.898438 C 2.5625 11.121094 2.46875 11.425781 2.5 11.714844 C 2.527344 11.503906 2.621094 11.296875 2.785156 11.132812 L 4.960938 8.957031 Z M 18.851562 8.722656 L 18.851562 8.957031 L 21.027344 11.132812 C 21.191406 11.296875 21.289062 11.503906 21.3125 11.714844 C 21.347656 11.425781 21.253906 11.121094 21.027344 10.898438 Z M 18.851562 8.722656 "/>
<path style=" stroke:none;fill-rule:nonzero;fill:rgb(0%,0%,0%);fill-opacity:0.235294;" d="M 11.90625 21.011719 C 11.652344 21.011719 11.398438 20.914062 11.207031 20.71875 L 9.03125 18.542969 L 5.953125 18.542969 C 5.402344 18.542969 4.960938 18.101562 4.960938 17.550781 L 4.960938 17.316406 C 4.960938 17.867188 5.402344 18.308594 5.953125 18.308594 L 9.03125 18.308594 L 11.207031 20.484375 C 11.398438 20.679688 11.652344 20.777344 11.90625 20.777344 C 12.160156 20.777344 12.414062 20.679688 12.609375 20.484375 L 14.785156 18.308594 L 17.859375 18.308594 C 18.410156 18.308594 18.851562 17.867188 18.851562 17.316406 L 18.851562 17.550781 C 18.851562 18.101562 18.410156 18.542969 17.859375 18.542969 L 14.785156 18.542969 L 12.609375 20.71875 C 12.414062 20.914062 12.160156 21.011719 11.90625 21.011719 Z M 4.960938 14.476562 L 2.785156 12.300781 C 2.5625 12.074219 2.46875 11.773438 2.5 11.480469 C 2.527344 11.695312 2.621094 11.902344 2.785156 12.066406 L 4.960938 14.242188 Z M 18.851562 14.476562 L 18.851562 14.242188 L 21.027344 12.066406 C 21.191406 11.902344 21.289062 11.695312 21.3125 11.480469 C 21.347656 11.773438 21.253906 12.074219 21.027344 12.300781 Z M 18.851562 14.476562 "/>
<path style=" stroke:none;fill-rule:nonzero;fill:rgb(12.941177%,12.941177%,12.941177%);fill-opacity:0.963235;" d="M 11.90625 2.117188 C 11.636719 2.117188 11.363281 2.21875 11.15625 2.425781 L 9 4.582031 L 5.953125 4.582031 C 5.367188 4.582031 4.890625 5.058594 4.890625 5.644531 L 4.890625 8.691406 L 2.734375 10.847656 C 2.320312 11.261719 2.320312 11.933594 2.734375 12.351562 L 4.890625 14.503906 L 4.890625 17.550781 C 4.890625 18.140625 5.367188 18.613281 5.953125 18.613281 L 9 18.613281 L 11.15625 20.769531 C 11.570312 21.183594 12.242188 21.183594 12.660156 20.769531 L 14.8125 18.613281 L 17.859375 18.613281 C 18.449219 18.613281 18.921875 18.140625 18.921875 17.550781 L 18.921875 14.503906 L 21.078125 12.351562 C 21.492188 11.933594 21.492188 11.261719 21.078125 10.847656 L 18.921875 8.691406 L 18.921875 5.644531 C 18.921875 5.058594 18.449219 4.582031 17.859375 4.582031 L 14.8125 4.582031 L 12.660156 2.425781 C 12.449219 2.21875 12.179688 2.117188 11.90625 2.117188 Z M 11.90625 2.257812 C 12.144531 2.257812 12.378906 2.347656 12.558594 2.527344 L 14.734375 4.703125 C 14.746094 4.714844 14.765625 4.722656 14.785156 4.722656 L 17.859375 4.722656 C 18.375 4.722656 18.78125 5.132812 18.78125 5.644531 L 18.78125 8.722656 C 18.78125 8.742188 18.789062 8.757812 18.804688 8.769531 L 20.980469 10.945312 C 21.339844 11.308594 21.339844 11.886719 20.980469 12.25 L 18.804688 14.425781 C 18.789062 14.4375 18.78125 14.457031 18.78125 14.476562 L 18.78125 17.550781 C 18.78125 18.066406 18.375 18.472656 17.859375 18.472656 L 14.785156 18.472656 C 14.765625 18.472656 14.746094 18.480469 14.734375 18.496094 L 12.558594 20.671875 C 12.199219 21.03125 11.617188 21.03125 11.253906 20.671875 L 9.078125 18.496094 C 9.066406 18.480469 9.050781 18.472656 9.03125 18.472656 L 5.953125 18.472656 C 5.441406 18.472656 5.03125 18.066406 5.03125 17.550781 L 5.03125 14.476562 C 5.03125 14.457031 5.023438 14.4375 5.011719 14.425781 L 2.835938 12.25 C 2.472656 11.886719 2.472656 11.308594 2.835938 10.945312 L 5.011719 8.769531 C 5.023438 8.757812 5.03125 8.742188 5.03125 8.722656 L 5.03125 5.644531 C 5.03125 5.132812 5.441406 4.722656 5.953125 4.722656 L 9.03125 4.722656 C 9.050781 4.722656 9.066406 4.714844 9.078125 4.703125 L 11.253906 2.527344 C 11.4375 2.347656 11.671875 2.257812 11.90625 2.257812 Z M 11.90625 2.257812 "/>
<path style=" stroke:none;fill-rule:nonzero;fill:rgb(100%,100%,100%);fill-opacity:0.392157;" d="M 11.90625 4.652344 C 8.058594 4.652344 4.960938 7.75 4.960938 11.597656 C 4.960938 11.640625 4.960938 11.679688 4.960938 11.722656 C 5.027344 7.933594 8.101562 4.902344 11.90625 4.902344 C 15.714844 4.902344 18.785156 7.933594 18.851562 11.722656 C 18.851562 11.679688 18.851562 11.640625 18.851562 11.597656 C 18.851562 7.75 15.753906 4.652344 11.90625 4.652344 Z M 11.90625 4.652344 "/>
<path style=" stroke:none;fill-rule:nonzero;fill:rgb(0%,0%,0%);fill-opacity:0.235294;" d="M 11.90625 18.792969 C 8.058594 18.792969 4.960938 15.695312 4.960938 11.847656 C 4.960938 11.804688 4.960938 11.765625 4.960938 11.722656 C 5.027344 15.511719 8.101562 18.542969 11.90625 18.542969 C 15.714844 18.542969 18.785156 15.511719 18.851562 11.722656 C 18.851562 11.765625 18.851562 11.804688 18.851562 11.847656 C 18.851562 15.695312 15.753906 18.792969 11.90625 18.792969 Z M 11.90625 18.792969 "/>
<path style="fill:none;stroke-width:2.546624;stroke-linecap:round;stroke-linejoin:round;stroke:rgb(12.941177%,12.941177%,12.941177%);stroke-opacity:1;stroke-miterlimit:4;" d="M 253.975747 -115.759477 C 335.801266 -115.759477 402.128265 -49.432478 402.128265 32.393042 C 402.128265 114.218561 335.801266 180.545561 253.975747 180.545561 C 172.150227 180.545561 105.823228 114.218561 105.823228 32.393042 C 105.823228 -49.432478 172.150227 -115.759477 253.975747 -115.759477 Z M 253.975747 -115.759477 " transform="matrix(0.0468795,0,0,0.0468795,0,10.079087)"/>
</g>
</svg>
